src/status/16/fcitx-mozc-alpha-half.svg

<?xml version="1.0" encoding="UTF-8"?>
<svg width="16" height="16" version="1.1" xmlns="http://www.w3.org/2000/svg">
 <defs>
  <style id="current-color-scheme" type="text/css">.ColorScheme-Text { color:#363636; } .ColorScheme-Highlight { color:#a0b6cb; } .ColorScheme-NeutralText { color:#f5cba3; } .ColorScheme-PositiveText { color:#aac69f; } .ColorScheme-NegativeText { color:#ec9b97; }</style>
 </defs>
 <path class="ColorScheme-Text" d="m9.498 3h1.0156l3.4863 10h-1.4395l-1.0115-3h-3.133l-0.99998 3h-1.416zm0.48633 2.0859-1.3203 3.9141h2.6719zm-7.9844 6.9141h3v1h-3z" fill="currentColor"/>
 <path class="ColorScheme-Text" d="m3 0c-1.662 0-3 1.338-3 3v10c0 1.662 1.338 3 3 3h9.9989c1.662 0 3-1.338 3-3v-10c0-1.662-1.338-3-3-3zm0 1h9.9989c1.108 0 2 0.892 2 2v10c0 1.108-0.892 2-2 2h-9.9989c-1.108 0-2-0.892-2-2v-10c0-1.108 0.892-2 2-2z" fill="currentColor"/>
</svg>

<svg xmlns="http://www.w3.org/2000/svg" width="16" height="16">
    <defs>
        <style id="current-color-scheme" type="text/css">
            .ColorScheme-Text{color:#050505;opacity:.7}
        </style>
    </defs>
    <path fill="currentColor" d="M9.498 3h1.016L14 13h-1.44l-1.011-3H8.416l-1 3H6zm.486 2.086L8.664 9h2.672zM2 12h3v1H2z" class="ColorScheme-Text"/>
    <path fill="currentColor" d="M3 0C1.338 0 0 1.338 0 3v10c0 1.662 1.338 3 3 3h9.999c1.662 0 3-1.338 3-3V3c0-1.662-1.338-3-3-3zm0 1h9.999c1.108 0 2 .892 2 2v10c0 1.108-.892 2-2 2H3c-1.108 0-2-.892-2-2V3c0-1.108.892-2 2-2z" class="ColorScheme-Text"/>
</svg>
